svgs/thin/album-collection.svg

<svg xmlns="http://www.w3.org/2000/svg" viewBox="0 0 512 512"><!--! Font Awesome Pro 6.1.1 by @fontawesome - https://fontawesome.com License - https://fontawesome.com/license (Commercial License) Copyright 2022 Fonticons, Inc. --><path d="M448 0C465.7 0 480 14.33 480 32V40C480 44.42 476.4 48 472 48C467.6 48 464 44.42 464 40V32C464 23.16 456.8 16 448 16H64C55.16 16 48 23.16 48 32V40C48 44.42 44.42 48 40 48C35.58 48 32 44.42 32 40V32C32 14.33 46.33 0 64 0H448zM16 112C16 94.33 30.33 80 48 80H464C481.7 80 496 94.33 496 112V120C496 124.4 492.4 128 488 128C483.6 128 480 124.4 480 120V112C480 103.2 472.8 96 464 96H48C39.16 96 32 103.2 32 112V120C32 124.4 28.42 128 24 128C19.58 128 16 124.4 16 120V112zM281.8 368.6C274.5 373.5 265.3 376 256 376C246.7 376 237.5 373.5 230.2 368.6C222.1 363.8 216 355.4 216 344C216 332.6 222.1 324.2 230.2 319.4C237.5 314.5 246.7 312 256 312C265.3 312 274.5 314.5 281.8 319.4C289 324.2 296 332.6 296 344C296 355.4 289 363.8 281.8 368.6zM256 360C269.3 360 280 352.8 280 344C280 335.2 269.3 328 256 328C242.7 328 232 335.2 232 344C232 352.8 242.7 360 256 360zM432 340C432 412.9 353.2 472 256 472C158.8 472 80 412.9 80 340C80 267.1 158.8 208 256 208C353.2 208 432 267.1 432 340zM370.9 259.5C342 237.8 301.5 224 256 224C210.5 224 169.1 237.8 141.1 259.5C112.3 281.1 96 309.7 96 340C96 370.3 112.3 398.9 141.1 420.5C169.1 442.2 210.5 456 256 456C301.5 456 342 442.2 370.9 420.5C399.7 398.9 416 370.3 416 340C416 309.7 399.7 281.1 370.9 259.5zM4.207 212.6C1.523 184.4 23.68 160 51.99 160H460C488.3 160 510.5 184.4 507.8 212.6L483.4 468.6C481.1 493.2 460.4 512 435.6 512H76.37C51.62 512 30.93 493.2 28.59 468.6L4.207 212.6zM51.99 176C33.12 176 18.35 192.2 20.13 211L44.52 467C46.08 483.5 59.87 496 76.37 496H435.6C452.1 496 465.9 483.5 467.5 467L491.9 211C493.7 192.2 478.9 176 460 176H51.99z"/></svg>

<svg xmlns="http://www.w3.org/2000/svg" viewBox="0 0 512 512"><!--! Font Awesome Pro 6.4.2 by @fontawesome - https://fontawesome.com License - https://fontawesome.com/license (Commercial License) Copyright 2023 Fonticons, Inc. --><path d="M64 0H448c17.7 0 32 14.3 32 32v8c0 4.4-3.6 8-8 8s-8-3.6-8-8V32c0-8.8-7.2-16-16-16H64c-8.8 0-16 7.2-16 16v8c0 4.4-3.6 8-8 8s-8-3.6-8-8V32C32 14.3 46.3 0 64 0zM16 112c0-17.7 14.3-32 32-32H464c17.7 0 32 14.3 32 32v8c0 4.4-3.6 8-8 8s-8-3.6-8-8v-8c0-8.8-7.2-16-16-16H48c-8.8 0-16 7.2-16 16v8c0 4.4-3.6 8-8 8s-8-3.6-8-8v-8zM4.2 212.6C1.5 184.4 23.7 160 52 160H460c28.3 0 50.5 24.4 47.8 52.6l-24.4 256c-2.3 24.6-23 43.4-47.8 43.4H76.4c-24.7 0-45.4-18.8-47.8-43.4L4.2 212.6zM52 176c-18.9 0-33.6 16.2-31.9 35L44.5 467c1.6 16.4 15.4 29 31.9 29H435.6c16.5 0 30.3-12.5 31.9-29l24.4-256c1.8-18.8-13-35-31.9-35H52zM416 340c0-30.3-16.3-58.9-45.1-80.5S301.5 224 256 224s-86 13.8-114.9 35.5S96 309.7 96 340s16.3 58.9 45.1 80.5S210.5 456 256 456s86-13.8 114.9-35.5S416 370.3 416 340zm16 0c0 72.9-78.8 132-176 132s-176-59.1-176-132s78.8-132 176-132s176 59.1 176 132zM281.8 368.6c-7.3 4.9-16.5 7.4-25.8 7.4s-18.5-2.5-25.8-7.4C223 363.8 216 355.4 216 344s7-19.8 14.2-24.6c7.3-4.9 16.5-7.4 25.8-7.4s18.5 2.5 25.8 7.4C289 324.2 296 332.6 296 344s-7 19.8-14.2 24.6zM256 360c13.3 0 24-7.2 24-16s-10.7-16-24-16s-24 7.2-24 16s10.7 16 24 16z"/></svg>
